icons/apigee.svg

<?xml version="1.0" encoding="UTF-8" standalone="no"?>
<svg width="512px" height="174px" viewBox="0 0 512 174" version="1.1" xmlns="http://www.w3.org/2000/svg" xmlns:xlink="http://www.w3.org/1999/xlink" preserveAspectRatio="xMidYMid">
	<g>
		<path d="M91.3472,118.6208 C91.3472,125.1712 91.3472,135.4144 79.08096,135.4144 C71.5776,135.4144 68.60032,131.36448 66.81408,124.576 C60.26368,132.43648 52.16448,136.4864 42.39936,136.4864 C18.34048,136.4864 0,116 0,87.0592 C0,58.95232 18.93632,37.3952 42.39872,37.3952 C51.80672,37.3952 61.09696,41.088 66.81344,49.18656 C67.52832,42.99328 72.88704,38.46784 79.08032,38.46784 C91.3472,38.46784 91.3472,48.59136 91.3472,55.26144 L91.3472,118.61952 L91.3472,118.6208 Z M45.9712,112.90432 C59.31072,112.90432 65.74208,99.32736 65.74208,87.06112 C65.74208,74.79488 59.5488,60.85952 45.97248,60.85952 C31.91808,60.85952 25.6064,74.7936 25.6064,87.06112 C25.6064,99.32864 32.03712,112.90432 45.9712,112.90432 L45.9712,112.90432 Z M98.61248,52.76032 C98.61248,44.1856 103.97184,38.46912 111.4752,38.46912 C118.6208,38.46912 122.67008,42.39872 124.33792,49.1872 C129.10208,41.32672 139.10592,37.39648 148.75264,37.39648 C176.38336,37.39648 190.07936,63.23968 190.07936,88.13184 C190.07936,112.30848 173.64416,136.36608 147.79904,136.36608 C139.81952,136.36608 131.00544,133.3888 124.33664,127.4336 L124.33664,158.75648 C124.33664,167.3312 118.97728,173.04768 111.47392,173.04768 C103.97056,173.04768 98.60992,167.33248 98.60992,158.75648 L98.60992,52.75968 L98.61248,52.76032 Z M144.46528,112.90432 C157.80416,112.90432 164.4736,98.97024 164.4736,87.06112 C164.4736,74.91264 157.9232,60.85952 144.46528,60.85952 C130.76928,60.85952 124.33728,73.7216 124.33728,86.10752 C124.33728,98.73152 130.29248,112.90432 144.46528,112.90432 L144.46528,112.90432 Z M223.30752,14.0544 C223.30752,22.03328 216.87552,28.82176 208.89664,28.82176 C201.27424,28.82176 194.4864,21.91424 194.4864,14.05376 C194.48576,6.78784 201.27488,0 208.896,0 C216.5184,0 223.30752,6.5504 223.30752,14.0544 L223.30752,14.0544 Z M196.03456,52.76032 C196.03456,44.1856 201.39392,38.46912 208.89728,38.46912 C216.40064,38.46912 221.76,44.18432 221.76,52.76032 L221.76,121.12256 C221.76,129.69728 216.40064,135.41376 208.89728,135.41376 C201.39392,135.41376 196.03456,129.69856 196.03456,121.12256 L196.03456,52.76032 L196.03456,52.76032 Z" fill="#FC4C02"></path>
		<path d="M319.1808,126.83904 C319.1808,157.68512 299.05408,173.16864 269.8752,173.16864 C259.39456,173.16864 229.3824,168.04672 229.3824,153.87392 C229.3824,149.10976 234.74112,142.67904 239.744,142.67904 C247.9616,142.67904 257.01248,150.65856 271.78048,150.65856 C284.28608,150.65856 293.456,143.39456 293.456,130.41216 L293.456,124.33728 L293.09888,124.33728 C287.73952,132.19776 279.04448,136.48448 267.25568,136.48448 C240.3392,136.48448 227.71456,112.78528 227.71456,87.29792 C227.71456,61.45472 244.14976,37.39584 269.99424,37.39584 C278.68864,37.39584 288.69248,41.32544 293.45664,49.18656 C295.00544,42.39808 299.17312,38.46784 306.31936,38.46784 C313.82272,38.46784 319.18208,44.18432 319.18208,52.75904 L319.18208,126.83904 L319.1808,126.83904 Z M273.44832,60.97792 C260.10944,60.97792 253.44,74.91264 253.44,86.82112 C253.44,100.51712 259.98976,113.02272 273.44768,113.02272 C287.14368,113.02272 293.57568,100.16064 293.57568,87.77472 C293.57568,75.15072 287.50208,60.97792 273.44768,60.97792 L273.44832,60.97792 Z M350.02752,95.51616 C351.81312,108.1408 362.2944,114.09536 374.20416,114.09536 C387.424,114.09536 396.47616,103.73376 403.264,103.73376 C408.7424,103.73376 413.74464,109.21216 413.74464,114.8096 C413.74464,125.88544 390.99712,136.60416 371.82208,136.60416 C343.00032,136.60416 323.70688,115.52384 323.70688,87.29856 C323.70688,61.33376 342.6432,37.63456 369.67808,37.63456 C397.42848,37.63456 415.7696,62.88256 415.7696,84.32064 C415.7696,91.94304 412.4352,95.75488 404.57472,95.75488 L350.02752,95.75488 L350.02752,95.5168 L350.02752,95.51616 Z M390.28224,78.36608 C388.85312,67.1712 381.70752,58.71488 369.79712,58.71488 C358.36352,58.71488 350.74176,67.40928 349.43232,78.36608 L390.28224,78.36608 L390.28224,78.36608 Z M446.25792,95.87328 C448.04352,108.49792 458.5248,114.33344 470.43456,114.33344 C483.6544,114.33344 492.70656,103.97184 499.4944,103.97184 C504.9728,103.97184 509.97504,109.45024 509.97504,115.04768 C509.97504,126.12352 487.22752,136.84224 468.05248,136.84224 C439.23072,136.84224 419.93728,115.76192 419.93728,87.53664 C419.93728,61.57184 438.8736,37.87264 465.90848,37.87264 C493.65888,37.87264 512,63.12064 512,84.55872 C512,92.18112 508.6656,95.99232 500.80512,95.99232 L446.25792,95.99232 L446.25792,95.87328 L446.25792,95.87328 Z M486.51392,78.7232 C485.08416,67.52832 477.93792,59.072 466.02752,59.072 C454.59456,59.072 446.9728,67.7664 445.78176,78.7232 L486.51328,78.7232 L486.51392,78.7232 Z" fill="#54585A"></path>
	</g>
</svg>

<svg xmlns="http://www.w3.org/2000/svg" viewBox="0 0 512 173.169">
  <path fill="#fc4c02" d="M91.347 118.62c0 6.551 0 16.794-12.266 16.794-7.503 0-10.48-4.05-12.267-10.838-6.55 7.86-14.65 11.91-24.415 11.91C18.34 136.486 0 116 0 87.06c0-28.107 18.936-49.664 42.399-49.664 9.408 0 18.698 3.693 24.414 11.792.715-6.194 6.074-10.72 12.267-10.72 12.267 0 12.267 10.124 12.267 16.794v63.359zm-45.376-5.716c13.34 0 19.771-13.577 19.771-25.843S59.55 60.86 45.972 60.86c-14.054 0-20.366 13.934-20.366 26.201 0 12.268 6.431 25.843 20.365 25.843zM98.612 52.76c0-8.574 5.36-14.29 12.863-14.29 7.146 0 11.195 3.929 12.863 10.717 4.764-7.86 14.768-11.79 24.415-11.79 27.63 0 41.326 25.843 41.326 50.735 0 24.176-16.435 48.234-42.28 48.234-7.98 0-16.794-2.977-23.462-8.932v31.322c0 8.575-5.36 14.292-12.863 14.292-7.503 0-12.864-5.716-12.864-14.292V52.76zm45.853 60.144c13.34 0 20.009-13.934 20.009-25.843 0-12.148-6.55-26.201-20.009-26.201-13.696 0-20.128 12.862-20.128 25.248 0 12.624 5.955 26.796 20.128 26.796zm78.843-98.85c0 7.98-6.432 14.768-14.411 14.768-7.623 0-14.41-6.908-14.41-14.768C194.485 6.788 201.274 0 208.895 0c7.622 0 14.412 6.55 14.412 14.054zM196.035 52.76c0-8.574 5.359-14.29 12.862-14.29 7.504 0 12.863 5.714 12.863 14.29v68.363c0 8.574-5.36 14.29-12.863 14.29-7.503 0-12.862-5.714-12.862-14.29z"/>
  <path fill="#54585a" d="M319.18 126.839c0 30.846-20.126 46.33-49.305 46.33-10.48 0-40.493-5.122-40.493-19.295 0-4.764 5.36-11.195 10.362-11.195 8.218 0 17.268 7.98 32.036 7.98 12.506 0 21.676-7.264 21.676-20.247v-6.075h-.357c-5.36 7.86-14.055 12.147-25.843 12.147-26.917 0-39.541-23.699-39.541-49.186 0-25.843 16.435-49.902 42.28-49.902 8.694 0 18.697 3.93 23.462 11.79 1.548-6.788 5.716-10.718 12.862-10.718 7.504 0 12.863 5.716 12.863 14.291v74.08zm-45.732-65.861c-13.339 0-20.008 13.935-20.008 25.843 0 13.696 6.55 26.202 20.008 26.202 13.696 0 20.128-12.862 20.128-25.248 0-12.624-6.074-26.797-20.128-26.797zm76.58 34.538c1.785 12.625 12.266 18.58 24.176 18.58 13.22 0 22.272-10.362 29.06-10.362 5.478 0 10.48 5.478 10.48 11.076 0 11.075-22.747 21.794-41.922 21.794-28.822 0-48.115-21.08-48.115-49.305 0-25.965 18.936-49.664 45.971-49.664 27.75 0 46.092 25.248 46.092 46.686 0 7.622-3.335 11.434-11.195 11.434h-54.547v-.238zm40.254-17.15c-1.429-11.195-8.574-19.651-20.485-19.651-11.433 0-19.055 8.694-20.365 19.651zm55.976 17.507c1.786 12.625 12.267 18.46 24.177 18.46 13.22 0 22.272-10.361 29.06-10.361 5.478 0 10.48 5.478 10.48 11.076 0 11.076-22.747 21.794-41.923 21.794-28.821 0-48.115-21.08-48.115-49.305 0-25.965 18.937-49.664 45.971-49.664 27.75 0 46.092 25.248 46.092 46.686 0 7.622-3.334 11.433-11.195 11.433h-54.547zm40.256-17.15c-1.43-11.195-8.576-19.651-20.486-19.651-11.433 0-19.055 8.694-20.246 19.651h40.731z"/>
</svg>
